X:1 
T:Gently_how_she_goes/Modified by Achazia 
C:Beowulf Soundtrack 
N:Harp 
Q:1/4=110 
V:1 
M:4/4 
L:1/8 
K:E 
z8 |[F4f4c4] [E4B4e]f g2 |[aA=D]g f2 [e4C4G4] | B [F,4c4C4] |[F3d3B,3] B [F4G4c4C4] |[c4F4f4] [B4eE4] f g2 |[=DA4a]g f2 [C4G4e4] |[B,3F3d3] B [F,4C4c4] |[B,3F3d3] B [C4F4G4c4] |[F4c4f4] [eE4B4] f g2 | 
[=DAa]g f2 [C4G4e4] |[A,3E3e3] c [d3B,4F4] B |[C4G4c4] E4 |[F4c4f4] [eE4B4] f g2 |[=DaA4] g f2 [C4G4e4] |[B,3F3d3] B [F,4C4c4] |[B,3F3d3] B [C4F4G4c4] |[F4c4f4] [E4B4e]f g2 |[=DAa]g f2 [C4G4e4] |[A,3E3e3] c [d3B,4F4] B | 
[C4G4c4] E4 |[F4c4f4] [eE4B4] f g2 |[=DaA4] g f2 [C4G4e4] |[B,3F3d3] B [F,4C4c4] |[B,3F3d3] B [C4F4G4c4] |[F4c4f4] [eE4B4] f g2 |[=DAa]g f2 [C4G4e4] |[A,3E3e3] c [d3B,4F4] B |[C4G4c4] z4 |]
